X:0910
T:Rossie House.
M:6/8
L:1/8
Q:3/8=100
I: :: ||
Z:Jack Campin * www.campin.me.uk * 2009
K:G
B/c/|(d>ed) dBc|dBg    dBG      |E>FG ABG|FDD    D2  (B/c/)|
      d>ed  dBc|dBg    dBG      |E>FG AGF|G3     G2       :|
F/G/| A>BA  AFD|AFd {B}AG/F/E/D/|ded  dBG|dBg {e}dc/B/A/G/ |
      gag   gec|dBg    dBG      |E>FG AGF|G3     G2       :|

